X:34
T:Shannon's Wedding
R:jig
C:Paul S. Cranford
O:Cape Breton Island
S:http://www.cranfordpub.com
D:currently unrecorded
B:currently unpublished in book form
Z:psc
H:                                                        copyrights Cranford Publications, SOCAN
L:1/8
Q:300
M:6/8
K:D
B|:Add Gdd|AGE F2 D|Eef g2 e|adf edB|
Add Gdd|AGE F2 D|Eed ceg|1fdd dcB:|[2fdd dcd||
|:eAA g2 f|edc d2 A|(B/c/d)B AGF|[1GEE Ecd|
eAA g2 f|edc d2 A|Bcd efg|fdd dcd:|
[2GEE EFE|DFA GdB|cde def|gab Age|fdd d2|]
